icons/VolumeOff.svg

<svg width="24" height="24" viewBox="0 0 24 24" fill="none" xmlns="http://www.w3.org/2000/svg">
<path fill-rule="evenodd" clip-rule="evenodd" d="M11.1358 4.06369C11.226 4.1067 11.3057 4.16904 11.3691 4.24629C11.4325 4.32354 11.4781 4.41381 11.5028 4.51069L11.5208 4.61069V19.3897C11.5099 19.4976 11.4734 19.6014 11.4143 19.6924C11.3551 19.7834 11.2752 19.8589 11.1809 19.9127C11.0867 19.9665 10.981 19.9971 10.8726 20.0018C10.7642 20.0064 10.6563 19.9852 10.5578 19.9397L10.4688 19.8897L7.59177 16.0017H4.09177C3.97363 16.0039 3.85865 15.9635 3.76791 15.8878C3.67717 15.8122 3.61676 15.7063 3.59777 15.5897L3.59177 15.5117V8.52469C3.58556 8.45584 3.59395 8.38646 3.6164 8.32109C3.63886 8.25571 3.67486 8.19581 3.72206 8.14531C3.76926 8.0948 3.82659 8.05484 3.8903 8.02802C3.95401 8.0012 4.02266 7.98814 4.09177 7.98969H7.59177L10.4688 4.10969C10.5666 4.04531 10.6794 4.00726 10.7962 3.9992C10.9131 3.99114 11.03 4.01335 11.1358 4.06369ZM14.9538 8.66369C15.0594 8.66404 15.1621 8.69918 15.2458 8.76369L15.3048 8.81669L17.0758 10.5897L18.8478 8.81769C18.932 8.73242 19.0441 8.68026 19.1636 8.67072C19.2831 8.66117 19.402 8.69488 19.4988 8.76569L19.5588 8.81769L20.2588 9.52869C20.3454 9.6102 20.3988 9.72093 20.4086 9.8395C20.4184 9.95808 20.3839 10.0761 20.3118 10.1707L20.2588 10.2297L18.4768 12.0017L20.2488 13.7737C20.334 13.8579 20.3862 13.97 20.3957 14.0895C20.4053 14.209 20.3716 14.328 20.3008 14.4247L20.2488 14.4847L19.5488 15.1847C19.4645 15.27 19.3524 15.3221 19.2329 15.3317C19.1134 15.3412 18.9945 15.3075 18.8978 15.2367L18.8378 15.1847L17.0658 13.4097L15.2918 15.1817C15.2103 15.2684 15.0995 15.3217 14.981 15.3315C14.8624 15.3413 14.7444 15.3068 14.6498 15.2347L14.5918 15.1817L13.8808 14.4817C13.7955 14.3974 13.7433 14.2853 13.7338 14.1658C13.7243 14.0464 13.758 13.9274 13.8288 13.8307L13.8808 13.7707L15.6528 11.9987L13.8808 10.2267C13.7941 10.1452 13.7407 10.0344 13.7309 9.91587C13.7211 9.7973 13.7556 9.67931 13.8278 9.58469L13.8808 9.52569L14.6018 8.81469C14.6468 8.76652 14.7014 8.72817 14.7619 8.70202C14.8225 8.67586 14.8878 8.66248 14.9538 8.66269V8.66369Z" fill="black"/>
</svg>

<svg xmlns="http://www.w3.org/2000/svg" viewBox="0 0 24 24">
  <path d="M11.136 4.064a.681.681 0 01.367.447l.018.1V19.39a.682.682 0 01-.963.55l-.09-.05-2.876-3.888h-3.5a.491.491 0 01-.494-.412l-.006-.078V8.525a.491.491 0 01.5-.535h3.5l2.877-3.88a.68.68 0 01.667-.046zm3.818 4.6c.105 0 .208.035.292.1l.059.053 1.77 1.773 1.773-1.772a.5.5 0 01.65-.052l.06.052.7.71a.481.481 0 01.054.643l-.053.059-1.782 1.772 1.772 1.772a.5.5 0 01.052.65l-.052.06-.7.7a.5.5 0 01-.651.053l-.06-.052-1.772-1.775-1.774 1.772a.481.481 0 01-.642.053l-.058-.053-.711-.7a.5.5 0 01-.052-.651l.052-.06 1.772-1.772-1.772-1.772a.481.481 0 01-.053-.642l.053-.06.72-.71a.48.48 0 01.353-.152z"/>
</svg>
